X: 291
T: None so pretty
%R: reel
Z: 2014 John Chambers <jc:trillian.mit.edu>
B: Preston "Twenty four Country Dances for the Year 1796" p.126 #1
F: http://www.vwml.org/browse/browse-collections-dance-tune-books/browse-prestons1796# 2014-8-10
M: C|
L: 1/8
K: D
A !segno!|\
dcdA BGAF | Ddfd ceAc |\
dcdA fafd | Bedc d2D H:|
f |\
edce fd2f | e>dcB c/d/e Ad |\
edce fd2f | e>dcB cA2B !segno!|]
% - - - - - - - - - - - - - - - - - - - - - - - - -
%%begintext align
%% Set to the 2d Lady & hands 3 round .|
%% Set to the 2d Gent: & hands 3 round :|
%% cross over one Cu: & turn :|.
%% right & left
%%endtext
% - - - - - - - - - - - - - - - - - - - - - - - - -

%%sep 1 1 500
%%sep 1 1 500
